svgs/thin/truck-field-un.svg

<svg xmlns="http://www.w3.org/2000/svg" viewBox="0 0 640 512"><!--! Font Awesome Pro 6.4.0 by @fontawesome - https://fontawesome.com License - https://fontawesome.com/license (Commercial License) Copyright 2023 Fonticons, Inc. --><path d="M96 48C69.5 48 48 69.5 48 96v32 16V272v16 80H75.3c10.4-36.9 44.4-64 84.7-64s74.2 27.1 84.7 64H368V224 208 104 96c0-26.5-21.5-48-48-48H96zM32 368V288c-17.7 0-32-14.3-32-32V160c0-17.7 14.3-32 32-32V96c0-35.3 28.7-64 64-64H320c35.3 0 64 28.7 64 64h52.2c15.1 0 29 8.6 35.8 22.1L516.9 208H544c35.3 0 64 28.7 64 64v96h24c4.4 0 8 3.6 8 8s-3.6 8-8 8H608 592 567.6c.2 2.6 .4 5.3 .4 8c0 48.6-39.4 88-88 88s-88-39.4-88-88c0-2.7 .1-5.4 .4-8H384 368 247.6c.2 2.6 .4 5.3 .4 8c0 48.6-39.4 88-88 88s-88-39.4-88-88c0-2.7 .1-5.4 .4-8H48 32 8c-4.4 0-8-3.6-8-8s3.6-8 8-8H32zm0-224c-8.8 0-16 7.2-16 16v96c0 8.8 7.2 16 16 16V144zm352 64H499.1l-41.4-82.7c-4.1-8.1-12.4-13.3-21.5-13.3H384v96zm0 16V368h11.3c10.4-36.9 44.4-64 84.7-64s74.2 27.1 84.7 64H592V272c0-26.5-21.5-48-48-48H512.2h-.3H384zM238.5 131.4L304 223V136c0-4.4 3.6-8 8-8s8 3.6 8 8V248c0 3.5-2.2 6.6-5.6 7.6s-6.9-.1-9-3L240 161v87c0 4.4-3.6 8-8 8s-8-3.6-8-8V136c0-3.5 2.2-6.6 5.6-7.6s6.9 .1 9 3zM112 136v72c0 17.7 14.3 32 32 32s32-14.3 32-32V136c0-4.4 3.6-8 8-8s8 3.6 8 8v72c0 26.5-21.5 48-48 48s-48-21.5-48-48V136c0-4.4 3.6-8 8-8s8 3.6 8 8zM232 392A72 72 0 1 0 88 392a72 72 0 1 0 144 0zm248 72a72 72 0 1 0 0-144 72 72 0 1 0 0 144z"/></svg>

<svg xmlns="http://www.w3.org/2000/svg" viewBox="0 0 640 512"><!--! Font Awesome Pro 6.3.0 by @fontawesome - https://fontawesome.com License - https://fontawesome.com/license (Commercial License) Copyright 2023 Fonticons, Inc. --><path d="M304 223V136C304 131.6 307.6 128 312 128C316.4 128 320 131.6 320 136V248C320 251.5 317.8 254.6 314.4 255.6C311.1 256.7 307.5 255.5 305.5 252.6L239.1 160.1V248C239.1 252.4 236.4 256 231.1 256C227.6 256 223.1 252.4 223.1 248V136C223.1 132.5 226.2 129.4 229.6 128.4C232.9 127.3 236.5 128.5 238.5 131.4L304 223zM112 208C112 225.7 126.3 240 144 240C161.7 240 176 225.7 176 208V136C176 131.6 179.6 128 184 128C188.4 128 192 131.6 192 136V208C192 234.5 170.5 256 144 256C117.5 256 96 234.5 96 208V136C96 131.6 99.58 128 104 128C108.4 128 112 131.6 112 136V208zM32 368V288C14.33 288 0 273.7 0 256V160C0 142.3 14.33 128 32 128V96C32 60.65 60.65 32 96 32H320C355.3 32 384 60.65 384 96H436.2C451.4 96 465.2 104.6 472 118.1L516.9 208H544C579.3 208 608 236.7 608 272V368H632C636.4 368 640 371.6 640 376C640 380.4 636.4 384 632 384H567.6C567.9 386.6 568 389.3 568 392C568 440.6 528.6 480 480 480C431.4 480 392 440.6 392 392C392 389.3 392.1 386.6 392.4 384H247.6C247.9 386.6 248 389.3 248 392C248 440.6 208.6 480 160 480C111.4 480 72 440.6 72 392C72 389.3 72.12 386.6 72.36 384H8C3.582 384 0 380.4 0 376C0 371.6 3.582 368 8 368H32zM48 96V368H75.31C85.76 331.1 119.7 304 160 304C200.3 304 234.2 331.1 244.7 368H368V96C368 69.49 346.5 48 320 48H96C69.49 48 48 69.49 48 96zM16 160V256C16 264.8 23.16 272 32 272V144C23.16 144 16 151.2 16 160zM384 208H499.1L457.7 125.3C453.6 117.1 445.3 112 436.2 112H384L384 208zM384 224V368H395.3C405.8 331.1 439.7 304 480 304C520.3 304 554.2 331.1 564.7 368H592V272C592 245.5 570.5 224 544 224H384zM160 320C120.2 320 88 352.2 88 392C88 431.8 120.2 464 160 464C199.8 464 232 431.8 232 392C232 352.2 199.8 320 160 320zM480 464C519.8 464 552 431.8 552 392C552 352.2 519.8 320 480 320C440.2 320 408 352.2 408 392C408 431.8 440.2 464 480 464z"/></svg>
